app/images/success.svg

<svg width="76" height="76" viewBox="0 0 76 76" fill="none" xmlns="http://www.w3.org/2000/svg">
<path d="M64.5165 11.4834C57.4336 4.40059 48.0167 0.5 38 0.5C27.9833 0.5 18.5664 4.40059 11.4837 11.4834C4.40059 18.5664 0.5 27.9834 0.5 38C0.5 48.0166 4.40059 57.4336 11.4837 64.5166C18.5664 71.5994 27.9833 75.5 38 75.5C48.0167 75.5 57.4336 71.5994 64.5165 64.5166C71.5994 57.4336 75.5 48.0166 75.5 38C75.5 27.9834 71.5994 18.5664 64.5165 11.4834ZM38 72.512C18.9701 72.512 3.48799 57.0301 3.48799 38C3.48799 18.9699 18.9701 3.48799 38 3.48799C57.0299 3.48799 72.512 18.9701 72.512 38C72.512 57.0299 57.0299 72.512 38 72.512Z" fill="#7F00AC"/>
<path d="M59.3265 21.9021C57.2878 19.8634 53.9703 19.8634 51.9316 21.9021L29.9318 43.9017L22.7229 36.6931C20.6841 34.6543 17.3667 34.6543 15.3279 36.6931C13.2891 38.7319 13.2891 42.0493 15.3279 44.0882L26.2344 54.9946C27.2221 55.9822 28.5352 56.5259 29.9318 56.5259C31.3284 56.5259 32.6415 55.982 33.6294 54.9944L59.3265 29.2972C61.3652 27.2583 61.3652 23.9407 59.3265 21.9021ZM57.2136 27.1842L31.5166 52.8814C31.0933 53.3046 30.5305 53.5379 29.932 53.5379C29.3334 53.5379 28.7706 53.3047 28.3474 52.8814L17.4411 41.975C16.5672 41.1011 16.5672 39.6795 17.4409 38.8057C17.8778 38.3689 18.4517 38.1505 19.0256 38.1505C19.5994 38.1505 20.1735 38.369 20.6101 38.8058L28.8754 47.0711C29.4591 47.6545 30.4048 47.6545 30.9884 47.0711L54.0443 24.0149C54.9182 23.1411 56.34 23.1411 57.2138 24.0149C58.0874 24.8886 58.0874 26.3103 57.2136 27.1842Z" fill="#7F00AC"/>
<path d="M68.1948 44.1717C67.3944 43.9678 66.5819 44.451 66.3784 45.2507C63.0745 58.2227 51.4049 67.2827 37.9999 67.2827C37.1749 67.2827 36.5059 67.9515 36.5059 68.7767C36.5059 69.6018 37.1749 70.2706 37.9999 70.2706C52.7724 70.2706 65.6327 60.2854 69.274 45.9881C69.4776 45.1887 68.9946 44.3753 68.1948 44.1717Z" fill="#7F00AC"/>
<path d="M68.7769 36.5063C67.9519 36.5063 67.2829 37.1752 67.2829 38.0003C67.2829 38.4275 67.2736 38.858 67.2553 39.2805C67.2196 40.1047 67.859 40.802 68.6834 40.8376C68.7054 40.8385 68.7272 40.8389 68.749 40.8389C69.5444 40.8389 70.2058 40.2117 70.2405 39.4094C70.2608 38.9443 70.2709 38.4703 70.2709 38.0003C70.2709 37.1752 69.6019 36.5063 68.7769 36.5063Z" fill="#7F00AC"/>
</svg>

<svg width="76" height="76" fill="none" xmlns="http://www.w3.org/2000/svg"><path d="M64.516 11.483C57.434 4.401 48.016.5 38 .5 27.983.5 18.566 4.4 11.484 11.483 4.4 18.566.5 27.983.5 38s3.9 19.434 10.984 26.517C18.566 71.599 27.984 75.5 38 75.5c10.017 0 19.434-3.9 26.516-10.983C71.6 57.434 75.5 48.017 75.5 38s-3.9-19.434-10.984-26.517zM38 72.512C18.97 72.512 3.488 57.03 3.488 38S18.97 3.488 38 3.488 72.512 18.97 72.512 38 57.03 72.512 38 72.512z" fill="#7F00AC"/><path d="M59.327 21.902a5.235 5.235 0 0 0-7.395 0l-22 22-7.21-7.209a5.235 5.235 0 0 0-7.394 0 5.235 5.235 0 0 0 0 7.395l10.906 10.907a5.195 5.195 0 0 0 3.698 1.53c1.396 0 2.71-.543 3.697-1.53l25.698-25.698a5.235 5.235 0 0 0 0-7.395zm-2.113 5.282L31.517 52.881a2.227 2.227 0 0 1-1.585.657 2.226 2.226 0 0 1-1.585-.657L17.441 41.975a2.244 2.244 0 0 1 0-3.17 2.234 2.234 0 0 1 1.585-.654c.573 0 1.148.218 1.584.655l8.265 8.265c.584.584 1.53.584 2.113 0l23.056-23.056a2.244 2.244 0 0 1 3.17 0 2.244 2.244 0 0 1 0 3.17zM68.195 44.172c-.8-.204-1.613.279-1.817 1.079C63.075 58.223 51.405 67.283 38 67.283a1.494 1.494 0 0 0 0 2.988c14.772 0 27.633-9.986 31.274-24.283.204-.8-.28-1.613-1.08-1.816zM68.777 36.506c-.825 0-1.494.67-1.494 1.494 0 .428-.01.858-.028 1.28a1.494 1.494 0 1 0 2.986.13c.02-.466.03-.94.03-1.41 0-.825-.67-1.494-1.494-1.494z" fill="#7F00AC"/></svg>
